svgs/sharp-light/square-person-confined.svg

<svg xmlns="http://www.w3.org/2000/svg" viewBox="0 0 448 512"><!--! Font Awesome Pro 6.6.0 by @fontawesome - https://fontawesome.com License - https://fontawesome.com/license (Commercial License) Copyright 2024 Fonticons, Inc. --><path d="M32 64l0 384 384 0 0-384L32 64zM0 32l32 0 384 0 32 0 0 32 0 384 0 32-32 0L32 480 0 480l0-32L0 64 0 32zM296 192l40 0 16 0 0 16 0 152c0 30.9-25.1 56-56 56c-25.1 0-48.8-11.5-64.4-31.3l-53.5-68.2-52.2 91.4L118 421.8 90.2 406l7.9-13.9 64-112 26.5-1.9L240 343.6l0-95.6 0-6.6 4.7-4.7 40-40 4.7-4.7 6.6 0zm24 168l0-136-17.4 0L272 254.6 272 360c0 13.3 10.7 24 24 24s24-10.7 24-24zM232 152a24 24 0 1 0 -48 0 24 24 0 1 0 48 0zm-80 0a56 56 0 1 1 112 0 56 56 0 1 1 -112 0z"/></svg>

<svg xmlns="http://www.w3.org/2000/svg" viewBox="0 0 448 512"><!--! Font Awesome Pro 6.4.2 by @fontawesome - https://fontawesome.com License - https://fontawesome.com/license (Commercial License) Copyright 2023 Fonticons, Inc. --><path d="M32 64V448H416V64H32zM0 32H32 416h32V64 448v32H416 32 0V448 64 32zM296 192h40 16v16V360c0 30.9-25.1 56-56 56c-25.1 0-48.8-11.5-64.4-31.3l-53.5-68.2-52.2 91.4L118 421.8 90.2 406l7.9-13.9 64-112 26.5-1.9L240 343.6V248v-6.6l4.7-4.7 40-40 4.7-4.7H296zm24 168V224H302.6L272 254.6V360c0 13.3 10.7 24 24 24s24-10.7 24-24zM232 152a24 24 0 1 0 -48 0 24 24 0 1 0 48 0zm-80 0a56 56 0 1 1 112 0 56 56 0 1 1 -112 0z"/></svg>
